src/images/article-black-18dp.svg

<svg enable-background="new 0 0 24 24" height="18" viewBox="0 0 24 24" width="18" xmlns="http://www.w3.org/2000/svg"><path d="m0 0h24v24h-24z" fill="none"/><path d="m5 5v14h14v-14zm9 12h-7v-2h7zm3-4h-10v-2h10zm0-4h-10v-2h10z" opacity=".3"/><path d="m19 3h-14c-1.1 0-2 .9-2 2v14c0 1.1.9 2 2 2h14c1.1 0 2-.9 2-2v-14c0-1.1-.9-2-2-2zm0 16h-14v-14h14zm-2-6h-10v-2h10zm0-4h-10v-2h10zm-3 8h-7v-2h7z"/></svg>

<svg xmlns="http://www.w3.org/2000/svg" enable-background="new 0 0 24 24" viewBox="0 0 24 24" fill="black" width="18px" height="18px"><g><rect fill="none" height="24" width="24" y="0"/><path d="M5,5v14h14V5H5z M14,17H7v-2h7V17z M17,13H7v-2h10V13z M17,9H7V7h10V9z" opacity=".3"/><path d="M19,3H5C3.9,3,3,3.9,3,5v14c0,1.1,0.9,2,2,2h14c1.1,0,2-0.9,2-2V5C21,3.9,20.1,3,19,3z M19,19H5V5h14V19z M17,13H7v-2h10 V13z M17,9H7V7h10V9z M14,17H7v-2h7V17z"/></g></svg>
